svg/fluentui-system-icons/ic_fluent_panel_right_expand_20_filled.svg

<svg width="20" height="20" viewBox="0 0 20 20" fill="none" xmlns="http://www.w3.org/2000/svg">
<path d="M6.82097 10.5L7.81949 11.3737C8.0273 11.5556 8.04836 11.8714 7.86652 12.0793C7.68468 12.2871 7.3688 12.3081 7.16098 12.1263L5.16098 10.3763C5.05247 10.2814 4.99023 10.1442 4.99023 10C4.99023 9.85583 5.05247 9.71866 5.16098 9.62372L7.16098 7.87372C7.3688 7.69188 7.68468 7.71294 7.86652 7.92075C8.04836 8.12857 8.0273 8.44445 7.81949 8.6263L6.82095 9.50001L10.5 9.50001C10.7761 9.50001 11 9.72387 11 10C11 10.2762 10.7761 10.5 10.5 10.5L6.82097 10.5ZM18 14C18 15.1046 17.1046 16 16 16L4 16C2.89543 16 2 15.1046 2 14V6C2 4.89543 2.89543 4 4 4H16C17.1046 4 18 4.89543 18 6V14ZM12 15L12 5L4 5C3.44772 5 3 5.44771 3 6L3 14C3 14.5523 3.44772 15 4 15L12 15Z" fill="#212121"/>
</svg>

<svg xmlns="http://www.w3.org/2000/svg" width="20" height="20"><path d="m6.821 10.5.998.874a.5.5 0 0 1-.658.752l-2-1.75a.5.5 0 0 1 0-.752l2-1.75a.5.5 0 0 1 .658.752l-.998.874H10.5a.5.5 0 0 1 0 1H6.821ZM18 14a2 2 0 0 1-2 2H4a2 2 0 0 1-2-2V6a2 2 0 0 1 2-2h12a2 2 0 0 1 2 2v8Zm-6 1V5H4a1 1 0 0 0-1 1v8a1 1 0 0 0 1 1h8Z"/></svg>
